X:6892
T:The Hayden Fancy
O:england
M:2/4
L:1/8
R:Polka
K:D
A>B df|A>B df|eB BA/B/|dB Bd|A>B d/f/e/d/|A>B df|eB cd|ed d2:|
af f/e/d/f/|af f>e|dB BA/B/|dB BA|af f/e/d/f/|af f>e|dB cd|ed d2:|


